X: 33441
T: Rabbit Stew
R: reel
M: 4/4
K: Gmajor
B3A GFGB|dBGB A4|ABcB ABcd|edef e2 d2|
B3A GFGB|dBGB A4|ABcB ABcd|e2 f2 g4:|
|:gdBc d2 ef|gdBc d4|{c}d2d2{c}d2d2|edef e2 d2|
gdBc d2 ef|gdBc d4|{c}d2d2{c}d2d2|e2 f2 g4:|

